X: 70
T: No_161_Switchgrass_Dance_Song_(k).krn
N: Derived from No_161_Switchgrass_Dance_Song_(k).krn
%%abc-version 2.0
%%abcx-abcm2ps-target-version 5.9.1 (29 Sep 2008)
%%abc-creator hum2abc beta
%%abcx-conversion-date 2019/03/15 08:38:45
%%humdrum-veritas 4076494642
%%humdrum-veritas-data 2765024703
%%linebreak <none>
%%barnumbers 0
L: 1/16
M: 3/4
K: G clef=bass
[K:clef=bass][M:3/4]D2C3/D/ DC3 G,G,3 ||  
[M:2/4]C3A, G,2A,2 | 
CA,G,2 D,2F,2 ||  
[M:3/4]G,G,D,2 D,3D,D,4 ||  
[M:3/8]G,/D,3/D,4 | 
[M:2/4]C4C3D | 
DC3 G,G,3 | 
C3A, G,2A,2 | 
CA,G,2 D,2F,2 ||  
[M:3/4]G,G,D,2 D,3D,D,4 ||  
[M:3/8]G,/D,3/D,4 |]  



